X:1
T:Labrador, 11.11.11.11
T:M. J. Maxham, 1887
T:Labrador, 11.11.11.11
T:Public Domain
C:M. J. Maxham, 1887
Z:Public Domain
%%score ( 1 2 ) 3
L:1/8
M:6/8
K:Db
V:1 treble 
V:2 treble 
V:3 bass 
V:1
 [FA] | [FA]>[FA][FA] [GB]>[FA][FA] | [FA]>[EG][CE] [DF]2 [FA] | [GB]>[GB][GB] [Fd]>[FA][FB] | %4
 [=Gc]>[Gc][GB] A2 [_GA] | [FA]>[FA][FA] [Fd]>[Fd][Fd] | [Gc]>[Gc][GB] [FA]2 [FA]/[FA]/ | %7
 [GB]>[GB][Gd] [Fd]>[FA][DF] | [FA]>[EG][CE] D2 |] %9
V:2
 x | x6 | x6 | x6 | x3 A2 x | x6 | x6 | x6 | x3 D2 |] %9
V:3
 [D,D] | [D,D]>[D,D][D,D] [D,D]>[D,D][D,D] | [A,,D]>[A,,A,][A,,A,] [D,A,]2 [D,D] | %3
 [G,D]>[G,D][G,D] [D,D]>[D,D][D,D] | [E,D]>[E,D][E,D] [A,C]2 [A,C] | %5
 [D,D]>[D,D][D,D] [D,A,]>[D,A,][D,A,] | [A,,A,]>[A,,A,][A,,A,] [D,A,]2 [D,D]/[D,D]/ | %7
 [G,D]>[G,D][G,B,] [D,A,]>[D,A,][D,A,] | [A,,A,]>[A,,A,][A,,G,] [D,F,]2 |] %9

